svg/Pictogram/pictograms-aem-0049-maintain_proper_tire_pressure.svg

<?xml version="1.0" encoding="ISO-8859-1" standalone="yes"?>
<svg height="304.014" width="304.015">
  <metadata>
    <rdf:RDF xmlns:cc="http://web.resource.org/cc/" xmlns:dc="http://purl.org/dc/elements/1.1/" xmlns:rdf="http://www.w3.org/1999/02/22-rdf-syntax-ns#">
      <cc:Work rdf:about="">
        <dc:title></dc:title>
        <dc:description></dc:description>
        <dc:subject>
          <rdf:Bag>
            <rdf:li></rdf:li>
          </rdf:Bag>
        </dc:subject>
        <dc:publisher>
          <cc:Agent rdf:about="http://www.unece.org/trans/danger/publi/ghs/pictograms.html">
            <dc:title>Source: UNECE GHS of Classification and Labeling of Chemicals, Source: AEM Pictorial Database, Source: AEM Pictorial Database, Source: AEM Pictorial Database, Source: AEM Pictorial Database</dc:title>
          </cc:Agent>
        </dc:publisher>
        <dc:creator>
          <cc:Agent>
            <dc:title></dc:title>
          </cc:Agent>
        </dc:creator>
        <dc:rights>
          <cc:Agent>
            <dc:title></dc:title>
          </cc:Agent>
        </dc:rights>
        <dc:date></dc:date>
        <dc:format>image/svg+xml</dc:format>
        <dc:type rdf:resource="http://purl.org/dc/dcmitype/StillImage"/>
        <cc:license rdf:resource="http://en.wikipedia.org/wiki/Public_domain"/>
        <dc:language>en</dc:language>
      </cc:Work>
    </rdf:RDF>
  </metadata>
  <defs><marker id="ArrowEnd" markerHeight="3" markerUnits="strokeWidth" markerWidth="4" orient="auto" refX="0" refY="5" viewBox="0 0 10 10"><path d="M 0 0 L 10 5 L 0 10 z"/></marker><marker id="ArrowStart" markerHeight="3" markerUnits="strokeWidth" markerWidth="4" orient="auto" refX="10" refY="5" viewBox="0 0 10 10"><path d="M 10 0 L 0 5 L 10 10 z"/></marker> </defs>
  <g id="g2958" transform="matrix(1.3532768,0,0,1.3532781,-53.207834,-52.192858)">
    <path d="M 159.218 239.163L 159.218 227.698L 171.288 227.698L 171.288 239.163L 185.761 239.163L 185.761 228.057L 197.581 228.057L 197.581 239.163L 205.784 239.163C 215.456 239.163 216.89 235.581 218.323 230.565C 220.472 214.084 227.64 204.768 235.159 190.795C 240.534 180.049 242.687 165.362 242.687 154.971C 242.687 128.1 233.011 113.053 224.413 98.3664C 221.19 91.9164 219.757 89.0534 219.397 81.1704C 220.831 68.4524 219.397 66.4834 208.472 65.0494C 196.647 62.7214 197.366 69.1704 197.542 78.3034C 197.542 89.7684 202.917 95.8624 210.44 103.741C 217.604 115.206 231.937 121.655 231.937 154.616C 231.937 187.573 213.308 202.26 196.827 215.518L 107.183 215.518C 90.7024 202.26 72.0734 187.573 72.0734 154.616C 72.0734 121.655 86.4014 115.206 93.5694 103.741C 101.093 95.8624 106.468 89.7684 106.468 78.3034C 106.644 69.1704 107.362 62.7214 95.5384 65.0494C 84.6124 66.4834 83.1794 68.4524 84.6124 81.1704C 84.2534 89.0534 82.8194 91.9164 79.5974 98.3664C 70.9954 113.053 61.3234 128.1 61.3234 154.971C 61.3234 165.362 63.4764 180.049 68.8474 190.795C 76.3704 204.768 83.5384 214.084 85.6874 230.565C 87.1204 235.581 88.5544 239.163 98.2264 239.163L 106.429 239.163L 106.429 228.057L 118.249 228.057L 118.249 239.163L 132.722 239.163L 132.722 227.698L 144.792 227.698L 144.792 239.163L 159.214 239.163" style="stroke:none; fill-rule:evenodd; fill:#000000"/>
    <path d="M 151.96 162.831C 157.659 162.831 162.276 158.213 162.276 152.514C 162.276 146.823 157.659 142.202 151.96 142.202C 146.269 142.202 141.647 146.819 141.647 152.514C 141.647 158.213 146.269 162.831 151.96 162.831" style="stroke:none; fill-rule:evenodd; fill:#000000"/>
    <path d="M 108.19 177.69L 108.19 164.432L 88.0854 164.432L 88.0854 139.631L 108.19 139.631L 108.19 126.874L 134.866 151.948L 108.19 177.69zM 128.046 151.952L 112.995 138.155L 112.995 144.334L 92.8904 144.334L 92.8904 159.627L 112.995 159.627L 112.995 166.163L 128.046 151.952" style="stroke:none; fill-rule:evenodd; fill:#000000"/>
    <path d="M 169.581 151.948L 196.257 126.877L 196.257 139.631L 216.362 139.631L 216.362 164.432L 196.257 164.432L 196.257 177.694L 169.581 151.952L 169.581 151.948zM 191.448 166.163L 191.448 159.627L 211.558 159.627L 211.558 144.334L 191.448 144.334L 191.448 138.155L 176.401 151.952L 191.448 166.163" style="stroke:none; fill-rule:evenodd; fill:#000000"/>
    <path d="M 29.6204 265.393L 2.62042 265.393" style="stroke:#000000; stroke-width:0.5; fill:none"/>
    <path d="M 38.6204 274.393L 38.6204 301.393" style="stroke:#000000; stroke-width:0.5; fill:none"/>
    <path d="M 29.6204 38.6204L 2.62042 38.6204" style="stroke:#000000; stroke-width:0.5; fill:none"/>
    <path d="M 38.6204 29.6204L 38.6204 2.62042" style="stroke:#000000; stroke-width:0.5; fill:none"/>
    <path d="M 274.394 38.6204L 301.394 38.6204" style="stroke:#000000; stroke-width:0.5; fill:none"/>
    <path d="M 265.394 29.6204L 265.394 2.62042" style="stroke:#000000; stroke-width:0.5; fill:none"/>
    <path d="M 274.394 265.393L 301.394 265.393" style="stroke:#000000; stroke-width:0.5; fill:none"/>
    <path d="M 265.394 274.393L 265.394 301.393" style="stroke:#000000; stroke-width:0.5; fill:none"/>
  </g>
</svg>

<svg viewBox="0 0 304.01 304.01"><g transform="matrix(1.35328 0 0 1.35328-53.21-52.19)" fill-rule="evenodd"><path d="m159.22 239.16v-11.465h12.07v11.465h14.473v-11.11h11.82v11.11h8.203c9.672 0 11.11-3.582 12.539-8.598 2.149-16.481 9.317-25.797 16.836-39.77 5.375-10.746 7.528-25.433 7.528-35.824 0-26.871-9.676-41.918-18.274-56.6-3.223-6.45-4.656-9.313-5.02-17.196 1.434-12.718 0-14.687-10.925-16.12-11.825-2.328-11.11 4.121-10.93 13.254 0 11.465 5.375 17.559 12.898 25.438 7.164 11.465 21.497 17.914 21.497 50.875 0 32.957-18.629 47.644-35.11 60.902h-89.64c-16.481-13.258-35.11-27.945-35.11-60.902 0-32.961 14.328-39.41 21.496-50.875 7.524-7.879 12.899-13.973 12.899-25.438.176-9.133.894-15.582-10.93-13.254-10.926 1.434-12.359 3.403-10.926 16.12-.359 7.883-1.793 10.746-5.02 17.196-8.602 14.687-18.274 29.734-18.274 56.6 0 10.391 2.153 25.08 7.524 35.824 7.523 13.973 14.691 23.289 16.84 39.77 1.433 5.02 2.867 8.598 12.539 8.598h8.203v-11.11h11.82v11.11h14.473v-11.465h12.07v11.465h14.422"/><path d="m151.96 162.83c5.699 0 10.316-4.618 10.316-10.317 0-5.691-4.617-10.312-10.316-10.312-5.691 0-10.313 4.617-10.313 10.312 0 5.699 4.622 10.317 10.313 10.317"/><path d="m108.19 177.69v-13.258h-20.1v-24.801h20.1v-12.757l26.676 25.07-26.676 25.742m19.856-25.738l-15.05-13.797v6.179h-20.1v15.293h20.1v6.536l15.05-14.211"/><path d="m169.58 151.95l26.676-25.07v12.754h20.1v24.801h-20.1v13.262l-26.676-25.742v-.004m21.867 14.215v-6.536h20.11v-15.293h-20.11v-6.179l-15.05 13.797 15.05 14.211"/></g></svg>
